X: 27
T: Calliope House
C: Dave Richardson
Z: apprenticeNerd
S: https://thesession.org/tunes/15#setting49453
R: jig
M: 6/8
L: 1/8
K: Dmaj
ABc|:dAA fAA|ede fdB|efe e2 d|efe edB|
ABA A2 F|A2 B d2 e|1 faf fed|e3 ABc:|2 faf edc|d3 efg||
|:~a3 faa|eaa def|g2 g fgf|efe edB|
ABA A2 F|A2 B d2 e|1 faf fed|e3 efg:|2 faf edc|d3 ABc||

